X: 27662
T: More Grog Coming
R: reel
M: 4/4
K: Dmajor
|:z (3ABc|d2ef gfec|d2fd adfd|fgfd ecef|agfe d2:|
BG|AGFD E=CE=C|D2FD ADFA|AFFA E2FG|AGFE D3B|
AFFA E2FE|D2FD ADFA|AFFA E2FG|AGFE D2||

